public/wave-1.svg

<svg xmlns="http://www.w3.org/2000/svg" width="688" height="924" fill="none" viewBox="0 0 688 924"><g clip-path="url(#a)"><path stroke="#57aef4" stroke-linecap="round" stroke-linejoin="round" stroke-miterlimit="10" stroke-width="20" d="m38.6 56.068 3.293.72 3.28.727 3.26.744 3.227.768 3.185.8 3.131.84 3.069.886 2.996.942 2.915 1.002 2.825 1.07 2.727 1.142 2.622 1.222 2.51 1.306 2.392 1.395 2.269 1.487 2.14 1.583 2.01 1.681 1.874 1.783 1.738 1.885 1.6 1.989 1.462 2.092 1.323 2.196 1.188 2.299 1.052 2.399.92 2.498.794 2.594.67 2.687.551 2.775.44 2.859.334 2.938.237 3.012.147 3.078.065 3.14-.007 3.195-.07 3.241-.122 3.281-.166 3.313-.198 3.337-.219 3.354-.23 3.362-.23 3.361-.22 3.354-.198 3.337-.165 3.313-.123 3.281-.07 3.241-.006 3.195.065 3.14.147 3.078.236 3.012.335 2.938.44 2.859.551 2.775.67 2.687.793 2.594.921 2.498 1.052 2.399 1.187 2.299 1.324 2.196 1.461 2.092 1.6 1.989 1.738 1.885 1.875 1.783 2.009 1.681 2.141 1.583 2.269 1.487 2.392 1.395 2.51 1.306 2.622 1.222 2.727 1.143 2.825 1.069 2.915 1.002 2.996.942 3.069.887 3.131.839 3.184.8 3.227.768 3.26.744 3.281.728 3.292.719 3.292.719 3.281.728 3.259.744 3.227.768 3.184.8 3.132.839 3.068.887 2.997.941 2.915 1.003 2.825 1.069 2.727 1.143 2.622 1.222 2.51 1.306 2.392 1.395 2.268 1.487 2.141 1.583 2.009 1.681 1.875 1.783 1.738 1.885 1.6 1.989 1.462 2.092 1.323 2.196 1.187 2.299 1.053 2.399.921 2.498.792 2.594.67 2.687.552 2.775.44 2.859.334 2.938.237 3.011.146 3.079.066 3.14-.007 3.194-.07 3.242-.123 3.281-.165 3.313-.198 3.337-.219 3.354-.23 3.361-.231 3.362-.219 3.354-.198 3.337-.165 3.313-.123 3.281-.07 3.241-.007 3.195.066 3.139.147 3.079.236 3.012.335 2.938.439 2.859.552 2.775.67 2.687.793 2.594.92 2.498 1.053 2.399 1.187 2.299 1.323 2.196 1.462 2.092 1.6 1.989 1.738 1.885 1.875 1.783 2.009 1.681 2.141 1.583 2.269 1.487 2.392 1.395 2.509 1.305 2.622 1.222 2.728 1.143 2.825 1.07 2.915 1.002 2.996.941 3.068.887 3.132.84 3.184.8 3.227.768 3.26.744 3.281.727 3.291.72 3.292.719 3.281.728 3.26.743 3.227.768 3.184.801 3.132.839 3.068.887 2.996.941 2.915 1.003 2.825 1.069 2.728 1.143 2.621 1.222 2.51 1.306 2.392 1.395 2.269 1.487 2.141 1.583 2.009 1.681 1.875 1.783 1.738 1.885 1.6 1.989 1.461 2.092 1.324 2.196 1.187 2.298 1.053 2.4.92 2.498.793 2.594.67 2.687.552 2.775.439 2.859.335 2.938.236 3.011.147 3.079.066 3.14-.007 3.194-.07 3.242-.123 3.281-.165 3.313-.198 3.337-.219 3.354-.231 3.361-.23 3.362-.219 3.354-.198 3.337-.165 3.313-.123 3.281-.07 3.241-.007 3.194.066 3.14.146 3.079.237 3.012.334 2.938.44 2.859.552 2.775.669 2.687.793 2.594.921 2.498 1.053 2.399 1.187 2.299 1.323 2.196 1.462 2.092 1.6 1.989 1.738 1.885 1.875 1.782 2.009 1.682 2.141 1.583 2.268 1.487 2.392 1.394 2.51 1.306 2.622 1.222 2.727 1.143 2.825 1.07 2.915 1.002 2.997.941 3.068.887 3.131.84 3.185.8 3.227.768 3.259.744 3.281.727 3.292.72 3.292.719 3.281.728 3.26.743 3.227.768 3.184.8 3.131.84 3.069.887 2.996.941 2.915 1.002 2.825 1.07 2.727 1.143 2.622 1.222 2.51 1.306 2.392 1.395 2.269 1.487 2.141 1.582 2.009 1.682 1.875 1.783 1.738 1.885 1.6 1.988 1.461 2.093 1.324 2.196 1.187 2.298 1.052 2.4.921 2.498.793 2.594.67 2.687.551 2.775.44 2.859.335 2.938.236 3.011.147 3.079.065 3.14-.007 3.194-.069 3.241-.123 3.281-.165 3.314-.198 3.337-.22 3.353-.23 3.362-.23 3.362-.219 3.353-.198 3.338-.166 3.313-.122 3.281-.07 3.241-.007 3.194.065 3.14.147 3.079.237 3.012.334 2.938.44 2.859.552 2.775.669 2.686.793 2.594.921 2.499 1.052 2.399 1.187 2.299 1.324 2.196 1.462 2.092 1.6 1.989 1.738 1.885 1.874 1.782 2.01 1.682 2.14 1.583 2.269 1.487 2.392 1.394 2.51 1.306 2.622 1.222 2.727 1.143 2.825 1.07 2.915 1.002 2.996.941 3.069.887 3.131.84 3.185.8 3.227.768 3.259.744 3.281.727 3.292.72 3.292.719 3.281.728 3.259.743 3.228.768 3.184.8 3.131.84 3.069.887 2.996.941 2.915 1.002 2.825 1.07 2.727 1.143 2.622 1.222 2.51 1.306 2.392 1.394 2.269 1.487 2.141 1.583 2.009 1.682 1.874 1.783 1.738 1.885 1.6 1.988 1.462 2.093 1.324 2.196 1.187 2.298 1.052 2.4.921 2.498.793 2.594.67 2.686.551 2.776.44 2.859.334 2.938.237 3.011.147 3.079.065 3.14-.007 3.194-.069 3.241-.123 3.281-.166 3.313-.197 3.338-.22 3.353-.23 3.362-.23 3.362-.22 3.353-.197 3.338-.166 3.313-.123 3.281-.069 3.241-.007 3.194.065 3.14.147 3.079.237 3.011.334 2.938.44 2.86.551 2.775.67 2.686.793 2.594.921 2.499 1.052 2.399 1.187 2.298 1.324 2.196 1.462 2.093 1.6 1.988 1.738 1.886 1.874 1.782 2.009 1.682 2.141 1.583 2.269 1.487 2.392 1.394 2.51 1.306 2.622 1.222 2.727 1.143 2.825 1.07 2.915 1.002 2.996.941 3.069.887 3.131.84 3.184.8 3.228.768 3.259.744 3.281.727"/></g><defs><clipPath id="a"><path fill="#fff" d="M0 924V0h688v924z"/></clipPath></defs></svg>

<svg width="688" height="924" viewBox="0 0 688 924" fill="none" xmlns="http://www.w3.org/2000/svg">
<g clip-path="url(#clip0_12_77)">
<path d="M38.6009 56.0681L41.8928 56.7874L45.1738 57.5149L48.4332 58.2587L51.6603 59.0266L54.8446 59.8267L57.976 60.6665L61.0446 61.5534L64.0408 62.4946L66.9557 63.4968L69.7807 64.5664L72.5079 65.7094L75.1298 66.9314L77.6398 68.2374L80.0318 69.6319L82.3005 71.1188L84.4413 72.7017L86.4506 74.3834L88.3252 76.166L90.0632 78.0511L91.6632 80.0397L93.1248 82.1322L94.4485 84.3281L95.6355 86.6266L96.6879 89.026L97.6087 91.5242L98.4017 94.1183L99.0713 96.8049L99.623 99.58L100.063 102.439L100.397 105.377L100.634 108.389L100.781 111.467L100.846 114.607L100.839 117.802L100.769 121.043L100.647 124.324L100.481 127.637L100.283 130.974L100.064 134.328L99.8338 137.69L99.6035 141.051L99.3841 144.405L99.1863 147.742L99.0209 151.055L98.8982 154.336L98.8285 157.577L98.8216 160.772L98.887 163.912L99.0337 166.99L99.2703 170.002L99.6048 172.94L100.045 175.799L100.596 178.574L101.266 181.261L102.059 183.855L102.98 186.353L104.032 188.752L105.219 191.051L106.543 193.247L108.004 195.339L109.604 197.328L111.342 199.213L113.217 200.996L115.226 202.677L117.367 204.26L119.636 205.747L122.028 207.142L124.538 208.448L127.16 209.67L129.887 210.813L132.712 211.882L135.627 212.884L138.623 213.826L141.692 214.713L144.823 215.552L148.007 216.352L151.234 217.12L154.494 217.864L157.775 218.592L161.067 219.311L164.359 220.03L167.64 220.758L170.899 221.502L174.126 222.27L177.31 223.07L180.442 223.909L183.51 224.796L186.507 225.737L189.422 226.74L192.247 227.809L194.974 228.952L197.596 230.174L200.106 231.48L202.498 232.875L204.766 234.362L206.907 235.945L208.916 237.626L210.791 239.409L212.529 241.294L214.129 243.283L215.591 245.375L216.914 247.571L218.101 249.87L219.154 252.269L220.075 254.767L220.867 257.361L221.537 260.048L222.089 262.823L222.529 265.682L222.863 268.62L223.1 271.631L223.246 274.71L223.312 277.85L223.305 281.044L223.235 284.286L223.112 287.567L222.947 290.88L222.749 294.217L222.53 297.571L222.3 300.932L222.069 304.294L221.85 307.648L221.652 310.985L221.487 314.298L221.364 317.579L221.294 320.82L221.287 324.015L221.353 327.154L221.5 330.233L221.736 333.245L222.071 336.183L222.51 339.042L223.062 341.817L223.732 344.504L224.525 347.098L225.445 349.596L226.498 351.995L227.685 354.294L229.008 356.49L230.47 358.582L232.07 360.571L233.808 362.456L235.683 364.239L237.692 365.92L239.833 367.503L242.102 368.99L244.494 370.385L247.003 371.69L249.625 372.912L252.353 374.055L255.178 375.125L258.093 376.127L261.089 377.068L264.157 377.955L267.289 378.795L270.473 379.595L273.7 380.363L276.96 381.107L280.241 381.834L283.532 382.554L286.824 383.273L290.105 384.001L293.365 384.744L296.592 385.512L299.776 386.313L302.908 387.152L305.976 388.039L308.972 388.98L311.887 389.983L314.712 391.052L317.44 392.195L320.061 393.417L322.571 394.723L324.963 396.118L327.232 397.605L329.373 399.188L331.382 400.869L333.257 402.652L334.995 404.537L336.595 406.526L338.056 408.618L339.38 410.814L340.567 413.112L341.62 415.512L342.54 418.01L343.333 420.604L344.003 423.291L344.555 426.066L344.994 428.925L345.329 431.863L345.565 434.874L345.712 437.953L345.778 441.093L345.771 444.287L345.701 447.529L345.578 450.81L345.413 454.123L345.215 457.46L344.996 460.814L344.765 464.175L344.535 467.537L344.316 470.891L344.118 474.228L343.953 477.541L343.83 480.822L343.76 484.063L343.753 487.257L343.819 490.397L343.965 493.476L344.202 496.488L344.536 499.426L344.976 502.285L345.528 505.06L346.197 507.747L346.99 510.341L347.911 512.839L348.964 515.238L350.151 517.537L351.474 519.733L352.936 521.825L354.536 523.814L356.274 525.699L358.149 527.481L360.158 529.163L362.299 530.746L364.567 532.233L366.959 533.627L369.469 534.933L372.091 536.155L374.818 537.298L377.643 538.368L380.558 539.37L383.555 540.311L386.623 541.198L389.754 542.038L392.939 542.838L396.166 543.606L399.425 544.35L402.706 545.077L405.998 545.797L409.29 546.516L412.571 547.244L415.831 547.987L419.058 548.755L422.242 549.555L425.373 550.395L428.442 551.282L431.438 552.223L434.353 553.225L437.178 554.295L439.905 555.438L442.527 556.66L445.037 557.966L447.429 559.361L449.698 560.848L451.839 562.43L453.848 564.112L455.723 565.895L457.461 567.78L459.061 569.768L460.522 571.861L461.846 574.057L463.033 576.355L464.085 578.755L465.006 581.253L465.799 583.847L466.469 586.534L467.02 589.309L467.46 592.168L467.795 595.106L468.031 598.117L468.178 601.196L468.243 604.336L468.236 607.53L468.167 610.771L468.044 614.052L467.879 617.366L467.681 620.703L467.461 624.056L467.231 627.418L467.001 630.78L466.782 634.133L466.584 637.471L466.418 640.784L466.296 644.065L466.226 647.306L466.219 650.5L466.284 653.64L466.431 656.719L466.668 659.731L467.002 662.669L467.442 665.528L467.994 668.303L468.663 670.989L469.456 673.583L470.377 676.082L471.429 678.481L472.616 680.78L473.94 682.976L475.402 685.068L477.002 687.057L478.74 688.942L480.614 690.724L482.624 692.406L484.764 693.989L487.033 695.476L489.425 696.87L491.935 698.176L494.557 699.398L497.284 700.541L500.109 701.611L503.024 702.613L506.02 703.554L509.089 704.441L512.22 705.281L515.405 706.081L518.632 706.849L521.891 707.593L525.172 708.32L528.464 709.04L531.756 709.759L535.037 710.487L538.296 711.23L541.524 711.998L544.708 712.798L547.839 713.638L550.908 714.525L553.904 715.466L556.819 716.468L559.644 717.538L562.371 718.681L564.993 719.903L567.503 721.209L569.895 722.603L572.164 724.09L574.305 725.673L576.314 727.355L578.188 729.138L579.926 731.023L581.526 733.011L582.988 735.104L584.312 737.3L585.499 739.598L586.551 741.998L587.472 744.496L588.265 747.09L588.935 749.776L589.486 752.552L589.926 755.411L590.26 758.349L590.497 761.36L590.644 764.439L590.709 767.579L590.702 770.773L590.633 774.014L590.51 777.295L590.344 780.608L590.147 783.946L589.927 787.299L589.697 790.661L589.467 794.023L589.247 797.376L589.05 800.714L588.884 804.027L588.761 807.308L588.692 810.549L588.685 813.743L588.75 816.883L588.897 819.962L589.134 822.973L589.468 825.911L589.908 828.771L590.459 831.546L591.129 834.232L591.922 836.826L592.843 839.325L593.895 841.724L595.082 844.022L596.406 846.218L597.868 848.311L599.468 850.299L601.206 852.185L603.08 853.967L605.089 855.649L607.23 857.232L609.499 858.719L611.891 860.113L614.401 861.419L617.023 862.641L619.75 863.784L622.575 864.854L625.49 865.856L628.486 866.797L631.555 867.684L634.686 868.524L637.87 869.324L641.098 870.092L644.357 870.836L647.638 871.563" stroke="#57AEF4" stroke-width="20" stroke-miterlimit="10" stroke-linecap="round" stroke-linejoin="round"/>
</g>
<defs>
<clipPath id="clip0_12_77">
<rect width="924" height="688" fill="white" transform="matrix(0 -1 1 0 0 924)"/>
</clipPath>
</defs>
</svg>
